app/static/icons/tw.svg

<svg width="37" height="37" viewBox="0 0 37 37" fill="none" xmlns="http://www.w3.org/2000/svg">
<path fill-rule="evenodd" clip-rule="evenodd" d="M18.673 0C8.74216 0 0.69165 8.28273 0.69165 18.5C0.69165 28.7173 8.74216 37 18.673 37C28.6038 37 36.6543 28.7173 36.6543 18.5C36.6543 8.28273 28.6038 0 18.673 0ZM18.1722 15.6773L18.1345 15.0371C18.0213 13.378 19.0149 11.8625 20.5871 11.2747C21.1657 11.0656 22.1467 11.0395 22.7882 11.2224C23.0397 11.3008 23.5177 11.5621 23.8573 11.7972L24.4736 12.2283L25.1528 12.0063C25.5301 11.8887 26.0332 11.6927 26.2596 11.5621C26.4734 11.4445 26.6621 11.3792 26.6621 11.4184C26.6621 11.6405 26.1967 12.3982 25.8068 12.8162C25.2785 13.4041 25.4295 13.4564 26.4986 13.0644C27.14 12.8424 27.1526 12.8424 27.0268 13.0906C26.9514 13.2212 26.5614 13.6785 26.1464 14.0965C25.442 14.815 25.4043 14.8934 25.4043 15.4944C25.4043 16.4219 24.9767 18.3554 24.549 19.4136C23.7567 21.3994 22.0587 23.4504 20.3607 24.4825C17.971 25.9326 14.7889 26.2984 12.1098 25.4492C11.2168 25.1618 9.68237 24.4302 9.68237 24.2996C9.68237 24.2604 10.1477 24.2081 10.7137 24.1951C11.896 24.1689 13.0783 23.8293 14.0845 23.2283L14.7637 22.8103L13.9839 22.5359C12.8771 22.144 11.8834 21.2426 11.6319 20.3934C11.5564 20.1191 11.5816 20.106 12.2859 20.106L13.0154 20.0929L12.3991 19.7925C11.6696 19.4136 11.003 18.7735 10.676 18.1203C10.437 17.65 10.1352 16.4611 10.2232 16.3697C10.2484 16.3305 10.5125 16.4089 10.8144 16.5134C11.6822 16.84 11.7954 16.7616 11.2923 16.2129C10.349 15.22 10.0597 13.7438 10.5125 12.3459L10.7263 11.7188L11.5564 12.568C13.2544 14.2794 15.2542 15.2984 17.5433 15.5989L18.1722 15.6773Z" fill="#9A9A9A"/>
</svg>

<svg xmlns="http://www.w3.org/2000/svg" width="37" height="37" fill="none"><path fill-rule="evenodd" d="M18.673 0C8.742 0 .692 8.283.692 18.5S8.742 37 18.673 37s17.98-8.283 17.98-18.5S28.604 0 18.673 0zm-.5 15.677l-.038-.64c-.113-1.66.88-3.175 2.453-3.762.58-.21 1.56-.235 2.2-.052.252.078.73.34 1.07.575l.616.43.68-.222c.377-.118.88-.314 1.107-.444.214-.118.402-.183.402-.144 0 .222-.465.98-.855 1.398-.528.588-.377.64.692.248.64-.222.654-.222.528.026-.075.13-.465.588-.88 1.006-.704.718-.742.797-.742 1.398 0 .928-.428 2.86-.855 3.92-.792 1.986-2.5 4.037-4.188 5.07-2.4 1.45-5.572 1.816-8.25.967-.893-.287-2.427-1.02-2.427-1.15 0-.04.465-.09 1.03-.105 1.182-.026 2.365-.366 3.37-.967l.68-.418-.78-.274c-1.107-.392-2.1-1.293-2.352-2.143-.075-.274-.05-.287.654-.287l.73-.013-.616-.3c-.73-.38-1.396-1.02-1.723-1.672-.24-.47-.54-1.66-.453-1.75.025-.04.29.04.59.144.868.327.98.248.478-.3-.943-.993-1.233-2.47-.78-3.867l.214-.627.83.85c1.698 1.71 3.698 2.73 5.987 3.03l.63.078z" fill="#9a9a9a"/></svg>
